X: 15
T: Reel With The Birl, The
Z: BansheeWailsOverTheMangoPit
S: https://thesession.org/tunes/189#setting52638
R: reel
M: 4/4
L: 1/8
K: Ador
|:~A2eA gAeA|~A2eA dBGB|~A2eA gAeA|1 gGge dBGB:|2 gGge (d2d2) ||
eceg a4|bggf g2ab|c'4 c'4|bd'd'd' d'bag|
gze'e' e'd'c'a|bd'd'e' d'bag|e3e edBd|gdgd edBd||

